svg/s/FK.svg

<svg width="16" height="12" viewBox="0 0 16 12" fill="none" xmlns="http://www.w3.org/2000/svg">
<g clip-path="url(#clip0_270_55177)">
<rect width="16" height="12" fill="white"/>
<path fill-rule="evenodd" clip-rule="evenodd" d="M0 0V12H16V0H0Z" fill="#2E42A5"/>
<g clip-path="url(#clip1_270_55177)">
<rect width="9" height="7" fill="#2E42A5"/>
<path d="M-1.00208 6.4999L0.9784 7.3685L9.045 0.944361L10.0897 -0.346405L7.97182 -0.636717L4.68165 2.13163L2.0334 3.99685L-1.00208 6.4999Z" fill="#F7FCFF"/>
<path d="M-0.730957 7.10849L0.278004 7.61255L9.71451 -0.466309H8.29782L-0.730957 7.10849Z" fill="#F50100"/>
<path d="M10.0022 6.4999L8.02172 7.3685L-0.0448761 0.944361L-1.08953 -0.346405L1.0283 -0.636717L4.31847 2.13163L6.96673 3.99685L10.0022 6.4999Z" fill="#F7FCFF"/>
<path d="M9.93457 6.93667L8.92561 7.44073L4.90745 3.98176L3.71615 3.59529L-1.1901 -0.341973H0.226597L5.13009 3.50184L6.43256 3.96525L9.93457 6.93667Z" fill="#F50100"/>
<path fill-rule="evenodd" clip-rule="evenodd" d="M4.99226 0H3.99226V3H0V4H3.99226V7H4.99226V4H9V3H4.99226V0Z" fill="#F50100"/>
<path fill-rule="evenodd" clip-rule="evenodd" d="M3.24226 -0.75H5.74226V2.25H9.75V4.75H5.74226V7.75H3.24226V4.75H-0.75V2.25H3.24226V-0.75ZM3.99226 3H0V4H3.99226V7H4.99226V4H9V3H4.99226V0H3.99226V3Z" fill="#F7FCFF"/>
</g>
<path d="M11.4816 9.19684C11.4816 9.19684 11.9736 9.66807 11.6765 9.98736C11.3794 10.3066 11.1071 10.1212 11.1071 10.1212" stroke="#B85F3C" stroke-width="0.5"/>
<path d="M14.525 9.19684C14.525 9.19684 14.033 9.66807 14.3301 9.98736C14.6271 10.3066 14.8995 10.1212 14.8995 10.1212" stroke="#B85F3C" stroke-width="0.5"/>
<path d="M11.1603 9.57657C11.1603 9.57657 12.0079 10.3865 13.0499 10.3865C14.0918 10.3865 14.9303 9.76775 14.9303 9.76775" stroke="#CB8B73" stroke-width="0.5"/>
</g>
<defs>
<clipPath id="clip0_270_55177">
<rect width="16" height="12" fill="white"/>
</clipPath>
<clipPath id="clip1_270_55177">
<rect width="9" height="7" fill="white"/>
</clipPath>
</defs>
</svg>

<svg width="16" height="12" fill="none" xmlns="http://www.w3.org/2000/svg">
  <mask id="a" maskUnits="userSpaceOnUse" x="0" y="0" width="16" height="12">
    <path fill="#fff" d="M0 0h16v12H0z"/>
  </mask>
  <g mask="url(#a)">
    <path fill-rule="evenodd" clip-rule="evenodd" d="M0 0v12h16V0H0z" fill="#2E42A5"/>
    <mask id="b" maskUnits="userSpaceOnUse" x="0" y="0" width="16" height="12">
      <path fill-rule="evenodd" clip-rule="evenodd" d="M0 0v12h16V0H0z" fill="#fff"/>
    </mask>
    <g mask="url(#b)">
      <mask id="c" maskUnits="userSpaceOnUse" x="0" y="0" width="9" height="7">
        <path fill="#fff" d="M0 0h9v7H0z"/>
      </mask>
      <g mask="url(#c)">
        <path d="M-1.002 6.5l1.98.869L9.045.944l1.045-1.29-2.118-.29-3.29 2.768-2.649 1.865L-1.002 6.5z" fill="#F7FCFF"/>
        <path d="M-.731 7.108l1.009.505 9.437-8.08H8.298L-.731 7.109z" fill="#F50100"/>
        <path d="M10.002 6.5l-1.98.869L-.045.944-1.09-.346l2.118-.29 3.29 2.768 2.649 1.865L10.002 6.5z" fill="#F7FCFF"/>
        <path d="M9.935 6.937l-1.01.504-4.018-3.46-1.19-.386L-1.19-.342H.227L5.13 3.502l1.303.463 3.502 2.972z" fill="#F50100"/>
        <mask id="d" maskUnits="userSpaceOnUse" x="-1" y="-1" width="11" height="9" fill="#000">
          <path fill="#fff" d="M-1-1h11v9H-1z"/>
          <path fill-rule="evenodd" clip-rule="evenodd" d="M4.992 0h-1v3H0v1h3.992v3h1V4H9V3H4.992V0z"/>
        </mask>
        <path fill-rule="evenodd" clip-rule="evenodd" d="M4.992 0h-1v3H0v1h3.992v3h1V4H9V3H4.992V0z" fill="#F50100"/>
        <path d="M3.992 0v-.75h-.75V0h.75zm1 0h.75v-.75h-.75V0zm-1 3v.75h.75V3h-.75zM0 3v-.75h-.75V3H0zm0 1h-.75v.75H0V4zm3.992 0h.75v-.75h-.75V4zm0 3h-.75v.75h.75V7zm1 0v.75h.75V7h-.75zm0-3v-.75h-.75V4h.75zM9 4v.75h.75V4H9zm0-1h.75v-.75H9V3zM4.992 3h-.75v.75h.75V3zm-1-2.25h1v-1.5h-1v1.5zM4.742 3V0h-1.5v3h1.5zM0 3.75h3.992v-1.5H0v1.5zM.75 4V3h-1.5v1h1.5zm3.242-.75H0v1.5h3.992v-1.5zM4.742 7V4h-1.5v3h1.5zm.25-.75h-1v1.5h1v-1.5zM4.242 4v3h1.5V4h-1.5zM9 3.25H4.992v1.5H9v-1.5zM8.25 3v1h1.5V3h-1.5zm-3.258.75H9v-1.5H4.992v1.5zM4.242 0v3h1.5V0h-1.5z" fill="#F7FCFF" mask="url(#d)"/>
      </g>
      <path d="M12.975 9.857c-.514 0-.872-.121-1.127-.333-.256-.213-.424-.53-.531-.952-.107-.423-.151-.94-.168-1.541-.011-.423-.01-.881-.007-1.373l.002-.517h3.708c.066 1.204.09 2.377-.146 3.257-.12.452-.308.815-.582 1.065-.272.247-.64.394-1.149.394z" fill="#6DC2FF" stroke="#F7FCFF" stroke-width=".25"/>
      <mask id="e" maskUnits="userSpaceOnUse" x="11" y="5" width="5" height="5">
        <path d="M12.975 9.857c-.514 0-.872-.121-1.127-.333-.256-.213-.424-.53-.531-.952-.107-.423-.151-.94-.168-1.541-.011-.423-.01-.881-.007-1.373l.002-.517h3.708c.066 1.204.09 2.377-.146 3.257-.12.452-.308.815-.582 1.065-.272.247-.64.394-1.149.394z" fill="#fff" stroke="#fff" stroke-width=".25"/>
      </mask>
      <g mask="url(#e)">
        <path fill-rule="evenodd" clip-rule="evenodd" d="M12.261 6.794s-.197-.146-.282-.383a8.826 8.826 0 01-.252-.92c0-.055-.223 0-.223 0s.003-.267.088-.267c.083 0 .087-.246.29-.184.205.062.365.29.573.29.208 0 1.077.066 1.216.066.14 0 .508.295.508.516 0 .22-.1.55-.179.55-.079 0-.178.19-.329.127-.15-.063-.508-.193-.83-.128-.32.065-.386.024-.386.128 0 .104-.194.205-.194.205z" fill="#E1E5E8"/>
        <path fill-rule="evenodd" clip-rule="evenodd" d="M11.8 6.64h2.578l-.444.573h-1.821L11.8 6.64z" fill="#49801E"/>
        <path d="M11.767 9.148s.445.16.631.14c.207-.022.39-.257.527-.257s.402.235.608.257c.186.02.55-.14.55-.14m-2.806-.68c.154-.13.49-.14.49-.14s.445.16.631.14c.207-.021.39-.256.527-.256s.402.235.608.256c.186.02.55-.14.55-.14s.203-.228.459.013" stroke="#fff" stroke-width=".533"/>
        <path d="M11.23 7.765l-.337-.413c.132-.108.354-.215.679-.332l.157-.008c.336.087.56.124.643.116a.44.44 0 00.155-.08c.235-.156.258-.169.398-.169.127 0 .154.013.42.157l.096.049c.056.027.096.04.118.043.065.006.194-.024.374-.096.235-.214.532-.192.788.042.17.155.308.28.411.376l-.362.392a40.94 40.94 0 00-.408-.374c-.068-.062-.053-.061-.083-.029l-.092.065c-.28.118-.502.173-.68.155a.883.883 0 01-.297-.093 2.674 2.674 0 01-.118-.061c-.129-.07-.178-.092-.167-.092.022 0-.009.017-.103.08-.152.1-.257.152-.397.166-.155.015-.395-.022-.748-.11-.228.087-.38.162-.447.216z" fill="#fff"/>
      </g>
      <path d="M11.482 9.197s.492.471.195.79c-.298.32-.57.134-.57.134m3.418-.924s-.492.471-.195.79c.297.32.57.134.57.134" stroke="#B85F3C" stroke-width=".5"/>
      <path d="M11.16 9.577s.848.81 1.89.81c1.042 0 1.88-.62 1.88-.62" stroke="#CB8B73" stroke-width=".5"/>
    </g>
  </g>
</svg>
